X: 25553
T: Marino Casino
R: reel
M: 4/4
K: Dmajor
|:FG|Ad cd B2 cd|A<d G2 T F2 ED|G2 FE A2 D2|EDCD E2 FG|
Ad cd B2 cd|A<d G2 T F2 ED|G2 FE A2 C2|D3:|
|:ED|CDEC A,2 A2|GFEF D2 dc|BcdB A<d F2|E3 D E3F|
CDEC A,2 A2|GFEF D2 dc|BcdB A<d F2|E3D D2:|

